dist/img/sprites/dok.svg

<svg width="24" height="24" viewBox="0 0 24 24" fill="none" xmlns="http://www.w3.org/2000/svg">
<path d="M17 21H19C19.2652 21 19.5196 20.8946 19.7071 20.7071C19.8946 20.5196 20 20.2652 20 20V7L16 3H5C4.73478 3 4.48043 3.10536 4.29289 3.29289C4.10536 3.48043 4 3.73478 4 4V20C4 20.2652 4.10536 20.5196 4.29289 20.7071C4.48043 20.8946 4.73478 21 5 21H7" stroke="currentColor" stroke-width="2" stroke-linecap="round" stroke-linejoin="round"/>
<path d="M12 13V16M15 3H9V7H15V3Z" stroke="currentColor" stroke-width="2" stroke-linecap="round" stroke-linejoin="round"/>
<path d="M12.0502 20.5H11.9502" stroke="currentColor" stroke-width="3" stroke-linecap="round" stroke-linejoin="round"/>
</svg>

<svg width="24" height="24" viewBox="0 0 24 24" fill="none" xmlns="http://www.w3.org/2000/svg"><path d="M17 21h2a1 1 0 001-1V7l-4-4H5a1 1 0 00-1 1v16a1 1 0 001 1h2" stroke="currentColor" stroke-width="2" stroke-linecap="round" stroke-linejoin="round"/><path d="M12 13v3m3-13H9v4h6V3z" stroke="currentColor" stroke-width="2" stroke-linecap="round" stroke-linejoin="round"/><path d="M12.05 20.5h-.1" stroke="currentColor" stroke-width="3" stroke-linecap="round" stroke-linejoin="round"/></svg>
